assets/Sagittarius/Flat/sagittarius_flat.svg

<svg width="32" height="32" viewBox="0 0 32 32" fill="none" xmlns="http://www.w3.org/2000/svg">
<path d="M2 6C2 3.79086 3.79086 2 6 2H26C28.2091 2 30 3.79086 30 6V26C30 28.2091 28.2091 30 26 30H6C3.79086 30 2 28.2091 2 26V6Z" fill="#8D65C5"/>
<path d="M25 7.00003C25 6.97003 25 6.94003 25 6.90003C25 6.88003 25 6.87003 24.99 6.85003C24.99 6.83003 24.99 6.82003 24.98 6.80003C24.98 6.78003 24.97 6.77003 24.97 6.75003C24.97 6.74003 24.96 6.72003 24.96 6.71003C24.96 6.69003 24.95 6.68003 24.94 6.66003C24.93 6.65003 24.93 6.63003 24.92 6.62003C24.91 6.60003 24.91 6.59003 24.9 6.58003C24.89 6.57003 24.89 6.55003 24.88 6.54003C24.87 6.53003 24.86 6.51003 24.86 6.50003C24.85 6.49003 24.84 6.47003 24.83 6.46003C24.82 6.44003 24.81 6.43003 24.8 6.42003C24.79 6.41003 24.78 6.40003 24.77 6.39003C24.73 6.34003 24.68 6.29003 24.63 6.25003C24.62 6.24003 24.61 6.23003 24.6 6.23003C24.58 6.22003 24.57 6.21003 24.55 6.20003C24.54 6.19003 24.52 6.18003 24.51 6.17003C24.5 6.16003 24.48 6.15003 24.47 6.15003C24.46 6.14003 24.44 6.14003 24.43 6.13003C24.41 6.12003 24.4 6.12003 24.38 6.11003C24.37 6.10003 24.35 6.10003 24.34 6.09003C24.32 6.08003 24.31 6.08003 24.29 6.07003C24.28 6.07003 24.26 6.06003 24.25 6.06003C24.23 6.06003 24.22 6.05003 24.2 6.05003C24.18 6.05003 24.17 6.04003 24.15 6.04003C24.13 6.04003 24.12 6.03003 24.1 6.03003C24.07 6.03003 24.04 6.03003 24.01 6.03003H24H15C14.45 6.03003 14 6.48003 14 7.03003C14 7.58003 14.45 8.03003 15 8.03003H21.59L13 16.59L10.71 14.3C10.32 13.91 9.69001 13.91 9.30001 14.3C8.91001 14.69 8.91001 15.32 9.30001 15.71L11.59 18L6.30001 23.29C5.91001 23.68 5.91001 24.31 6.30001 24.7C6.49001 24.9 6.74001 25 7.00001 25C7.26001 25 7.51001 24.9 7.71001 24.71L13 19.41L15.29 21.7C15.49 21.9 15.74 22 16 22C16.26 22 16.51 21.9 16.71 21.71C17.1 21.32 17.1 20.69 16.71 20.3L14.41 18L23 9.41003V16C23 16.55 23.45 17 24 17C24.55 17 25 16.55 25 16V7.00003Z" fill="white"/>
</svg>

<svg xmlns="http://www.w3.org/2000/svg" width="32" height="32" fill="none"><path fill="#8D65C5" d="M2 6a4 4 0 0 1 4-4h20a4 4 0 0 1 4 4v20a4 4 0 0 1-4 4H6a4 4 0 0 1-4-4V6Z"/><path fill="#fff" d="M25 7v-.1c0-.02 0-.03-.01-.05 0-.02 0-.03-.01-.05 0-.02-.01-.03-.01-.05 0-.01-.01-.03-.01-.04 0-.02-.01-.03-.02-.05-.01-.01-.01-.03-.02-.04-.01-.02-.01-.03-.02-.04-.01-.01-.01-.03-.02-.04a.076.076 0 0 1-.02-.04c-.01-.01-.02-.03-.03-.04-.01-.02-.02-.03-.03-.04l-.03-.03a.927.927 0 0 0-.14-.14c-.01-.01-.02-.02-.03-.02-.02-.01-.03-.02-.05-.03-.01-.01-.03-.02-.04-.03a.076.076 0 0 0-.04-.02c-.01-.01-.03-.01-.04-.02-.02-.01-.03-.01-.05-.02-.01-.01-.03-.01-.04-.02-.02-.01-.03-.01-.05-.02-.01 0-.03-.01-.04-.01-.02 0-.03-.01-.05-.01-.02 0-.03-.01-.05-.01-.02 0-.03-.01-.05-.01H15c-.55 0-1 .45-1 1s.45 1 1 1h6.59L13 16.59l-2.29-2.29a.996.996 0 1 0-1.41 1.41L11.59 18 6.3 23.29a.996.996 0 0 0 0 1.41c.19.2.44.3.7.3.26 0 .51-.1.71-.29l5.29-5.3 2.29 2.29c.2.2.45.3.71.3.26 0 .51-.1.71-.29a.996.996 0 0 0 0-1.41l-2.3-2.3L23 9.41V16c0 .55.45 1 1 1s1-.45 1-1V7Z"/></svg>
